T: Skraddar Quadrille, The
M: 4/4
L: 1/8
K: Gmaj
gd d/e/d/c/ | BG Gg | e/c/e/g/ f/d/f/g/ | a/g/f/e/ d/e/g/f/ |gd d/e/d/c/ | BG Gg | e/c/e/g/ f/d/f/a/ | gg/f/ g :| ~
